!!!OTL: Die Rabenmutter
!!!OTL-incipit:Es kam ein Jaeger obenrein,
!!!ARE: Europa, Mitteleuropa, Deutschland (), Sachsen
!!!YOR: 5, S. 269
!!    1909 gedruckt in Annaberg
!!!SCT: Q0114Q
!!!TXL: @@DE
!!!YEM: Copyright 1995, estate of Helmut Schaffrath.
**kern	**text
*ICvox	*
*M4/4	*
*met(c)	*
*k[f#]	*
*G:	*
!LO:TX:a:t=62 Sachsen	!
{4d	Es
=1	=1
4.g	kam
8d	ein
4g	Jä-
4a	-ger
=2	=2
4.b	o-
8a	-ben-
4g}	-rein,
{4a	es
=3	=3
4.b	kam
8a	ein
4b	Jä-
4cc	-ger
=4	=4
2dd	o-
(4cc	-ben-
4b)	.
=5	=5
2.a}	-rein
{4dd	und
=6	=6
4.ee	hörte
8cc	ein
4b	klei-
4a	-nes
=7	=7
2g	Kind-
2f#	-lein
=8	=8
2.g}	schrein.
==	==
!!!AGN: Ballade, Kinds - Mord, Strafe
!!!ONB: ESAC (Essen Associative Code) Database: BALLADE
!!!AMT: simple quadruple
!!!AIN: vox
!!!EED: Helmut Schaffrath
!!!EEV: 1.0
!!!source: Deutsche Volkslieder mit ihren Melodien Balladen. Herausgegeben vom Deutschen Volksliedarchiv. Fünfter Teil. Freiburg/Breisgau 1965.
!!!page: 269
!!!ENC: Anna Maria Matuszewska
!!!EEV: 2025/03/05
*-	*-
